X:1
I:linebreak $
T:St. Paul's Cathedral
C:Master James Blackcloak
N:Free for non-commercial use within the SCA
M:3/4
L:1/8
K:D minor
"C"G3FE2 | "Dm"D4E2 | "F"F2c2B2 | "Dm"A6 | "Gm"d3cG2 | "F"A2B2F2 |  [1 "C"G2F2E2 | "Dm"D4EF :|]
 [2 "C"G4F2 | "Gm"G2A2D2 :: "F"c6 | "Am"A6 | "Gm"G2A2d2 | "F"c6 | "Am"A6 | "Gm"G2A2d2 |
"C"e6 | "F"f6 | "C"e3dc2 | "Dm"d2c2A2 |  [1 "C"G4F2 | "Gm"G2A2D2 :|]  [2 "Gm"G2A2"C"C2 | "Dm"D4E2 ::
"F"FGA2F2 | "Bb"B3AGF | "Gm"G4FG | "Am"ABc2A2 | "Dm"d3ef2 | "Gm"g6 | "Am"agfgfe | "F"f4"C"e2 |
"Dm"d3c"Am"A2 |  [1 "Bb"B2A2F2 | "C"EFGFEC | "Dm"D4E2 :|]  [2 "Bb"B2c2d2 | "C"efgfec | "Dm"d4e2 :| "F"f2g2a2 |
"Gm"g3fed | "A"^c2d2e2 | "Dm"d2e2f2 | "A"e3d^c2 | "Dm"dAd2c2 | "Gm"B2A2G2 | "F"FEFG"C"E2 | [1-4 "Dm"D4 EF :| [5 "Dm"D6 |]

